X: 9736
T: Deirdre's Lament
R: waltz
M: 3/4
K: Gmajor
GA|B3 A GE|DE G3 A/B/|c3 cBG|c3 c BG|AG ED EG|A4 Bc|
d2 g>e dB|A/G/E D3 D/E/|G{B}A GE DE|GA BG DE|GA BG ~A2|G4||

